icon-svg/claude-clawd.svg

<svg xmlns="http://www.w3.org/2000/svg" viewBox="0 0 24 24"><path fill="#44739e" d="M4.5 6h15v5H22v2h-2.5v3h-1v2H17v-2h-1v2h-1.5v-2h-5v2H8v-2H7v2H5.5v-2h-1v-3H2v-2h2.5ZM7 8v3h1V8Zm9 0v3h1V8Z"/></svg>

<svg xmlns="http://www.w3.org/2000/svg" viewBox="0 0 24 24"><path fill="#44739e" d="M4.5 6H19.5V11H22V13H19.5V16H18.5V18H17V16H16V18H14.5V16H9.5V18H8V16H7V18H5.5V16H4.5V13H2V11H4.5ZM7 8V11H8V8ZM16 8V11H17V8Z"/></svg>
